X:453
T:Night at the Fair, A
T:A Night at the Fair
R:jig
Z:hn-jig-453
M:6/8
L:1/8
K:G
B2A GED | EGF G2A | BGG dGG | ABA AGA |
B2A GED | EGF G2A | BeB dBA |1 AGF G2A :|2 AGF GBd ||
|: efg eaa | egg ged | BGG dBG | ABA ABd |
egg eaa | egg ged | BeB dBA |1 AGF GBd :|2 AGF G2A ||

